X:1
T:Merrily Kiss the Quaker's Wife
R:single jig
C:Syracuse session setting
L:1/8
M:6/8
K:G
&quot;G&quot;GAB D2 B|&quot;C&quot;c2A &quot;G&quot;BGE|GAB DEG|&quot;D&quot;A3 AGE|
&quot;G&quot;GAB D2 B|&quot;C&quot;c2A &quot;G&quot;BGE|GAB &quot;D&quot;D2E|1 &quot;G&quot;G3 G2D:|2 &quot;G&quot;G3 G2A|]
&quot;G&quot;BGG AGG|BGG AGE|GAB DEG|&quot;D&quot;A3 AGA|
&quot;G&quot;BGG AGG|BGG AGE|GAB &quot;D&quot;D2E|1 &quot;G&quot;G3 G2A:|2&quot;G&quot; G3 GBd |]
~g3 aga|bge dBd|~g3 gab|&quot;D&quot;~a3 agf|
&quot;G&quot;g2g &quot;D&quot;faf|&quot;G&quot;ege dBA|GAB &quot;D&quot;D2E|1 &quot;G&quot;G3 GBd:|2 &quot;G&quot;G3 G2D|]
</abc>
